X:1
T: Ladykirk Bridge
C:Muriel A Johnstone
R:Strathspey
%Q: 128
K:A
M:4/4
L:1/16
|:cd|ec3 f4 d4 B3c|dB3 e4 c4 A3B|cA3 d3c B3A G3F|E3G Bf3 e4 c3d|
ec3 f4 d4 B3c|dB3 e4 c3B A3G|AF3 cA3 d3c B3A|GE3 e3B A4 A2ze|
((3agf) ((3ef=g) ((3fa^g) ((3fed) |cA3 e3A cB3 B3e|((3agf) ((3ef=g) ((3fa^g) ((3fed)|cA3 e3B cA3 A3e|
((3agf) ((3ef=g) ((3fa^g) ((3fed) |((3cBA) ((3GFE) ((3DCB,) ((3dcB)|cA3 f4 d3c B3A|GE3 e3B A6:|
